src/pos-icons/file-pdf-box.svg

<svg height="24" viewBox="0 0 24 24" width="24" xmlns="http://www.w3.org/2000/svg"><path d="m19 3a2 2 0 0 1 2 2v14a2 2 0 0 1 -2 2h-14c-1.11 0-2-.9-2-2v-14c0-1.11.89-2 2-2zm-8.41 7.08c-.02.05-.29 1.76-2.09 4.69 0 0-3.5 1.81-2.67 3.17.67 1.06 2.32-.04 3.73-2.67 0 0 1.82-.64 4.23-.82 0 0 3.86 1.74 4.38-.11.52-1.84-3.05-1.44-3.67-1.25 0 0-2.04-1.34-2.5-3.2 0 0 1.13-3.94-.62-3.89s-1.09 3.12-.79 4.08m.81 1.05c.03 0 .47 1.2 1.89 2.45 0 0-2.33.46-3.39.92 0 0 1-1.75 1.5-3.37m3.92 2.71c.58-.15 2.32.16 2.26.48-.08.33-2.26-.48-2.26-.48m-7.06 1.86c-.53 1.21-1.43 1.98-1.66 1.97s.7-1.6 1.66-1.97m3.14-6.94c-.01-.05-.37-2.19 0-2.15.54.06 0 2.1 0 2.15z"/></svg>

<?xml version="1.0" encoding="UTF-8"?><!DOCTYPE svg PUBLIC "-//W3C//DTD SVG 1.1//EN" "http://www.w3.org/Graphics/SVG/1.1/DTD/svg11.dtd"><svg xmlns="http://www.w3.org/2000/svg" xmlns:xlink="http://www.w3.org/1999/xlink" version="1.1" id="mdi-file-pdf-box" width="24" height="24" viewBox="0 0 24 24"><path d="M19,3A2,2 0 0,1 21,5V19A2,2 0 0,1 19,21H5C3.89,21 3,20.1 3,19V5C3,3.89 3.89,3 5,3H19M10.59,10.08C10.57,10.13 10.3,11.84 8.5,14.77C8.5,14.77 5,16.58 5.83,17.94C6.5,19 8.15,17.9 9.56,15.27C9.56,15.27 11.38,14.63 13.79,14.45C13.79,14.45 17.65,16.19 18.17,14.34C18.69,12.5 15.12,12.9 14.5,13.09C14.5,13.09 12.46,11.75 12,9.89C12,9.89 13.13,5.95 11.38,6C9.63,6.05 10.29,9.12 10.59,10.08M11.4,11.13C11.43,11.13 11.87,12.33 13.29,13.58C13.29,13.58 10.96,14.04 9.9,14.5C9.9,14.5 10.9,12.75 11.4,11.13M15.32,13.84C15.9,13.69 17.64,14 17.58,14.32C17.5,14.65 15.32,13.84 15.32,13.84M8.26,15.7C7.73,16.91 6.83,17.68 6.6,17.67C6.37,17.66 7.3,16.07 8.26,15.7M11.4,8.76C11.39,8.71 11.03,6.57 11.4,6.61C11.94,6.67 11.4,8.71 11.4,8.76Z" /></svg>
